src/assets/filled/CardSlash.svg

<svg width="24" height="24" viewBox="0 0 24 24"  xmlns="http://www.w3.org/2000/svg">
<path d="M19.27 3.65002L14.17 8.75002H3.2C2.54 8.75002 2 8.21002 2 7.55002V7.54002C2 5.25002 3.85 3.40002 6.14 3.40002H17.85C18.35 3.40002 18.83 3.49002 19.27 3.65002Z" />
<path d="M12.67 10.25L7.17 15.75H6C5.59 15.75 5.25 16.09 5.25 16.5C5.25 16.81 5.45 17.09 5.73 17.19L3.38 19.54C2.53 18.79 2 17.69 2 16.46V11.45C2 10.79 2.54 10.25 3.2 10.25H12.67Z" />
<path d="M21.9999 11V16.46C21.9999 18.75 20.1499 20.6 17.8599 20.6H8.80992C7.91992 20.6 7.46992 19.52 8.09992 18.89L9.44992 17.54C9.63992 17.35 9.88992 17.25 10.1599 17.25H14.4999C14.9099 17.25 15.2499 16.91 15.2499 16.5C15.2499 16.09 14.9099 15.75 14.4999 15.75H13.6599C12.7699 15.75 12.3199 14.67 12.9499 14.04L16.4099 10.58C16.7899 10.21 17.2999 10 17.8299 10H20.9999C21.5499 10 21.9999 10.45 21.9999 11Z" />
<path d="M21.7699 2.23C21.4699 1.93 20.9799 1.93 20.6799 2.23L2.22988 20.69C1.92988 20.99 1.92988 21.48 2.22988 21.78C2.37988 21.92 2.56988 22 2.76988 22C2.96988 22 3.15988 21.92 3.30988 21.77L21.7699 3.31C22.0799 3.01 22.0799 2.53 21.7699 2.23Z" />
<path d="M21.7701 3.31L20.6101 4.47L16.3301 8.75L3.31006 21.77C3.16006 21.92 2.97006 22 2.77006 22C2.57006 22 2.38006 21.92 2.23006 21.77C1.92006 21.47 1.92006 20.99 2.23006 20.69L3.38006 19.54L5.73006 17.19L19.2701 3.65L20.6901 2.23C20.9901 1.92 21.4701 1.92 21.7701 2.23C22.0801 2.53 22.0801 3.01 21.7701 3.31Z" />
<path d="M22.0001 7.41002C22.0001 6.52002 20.9201 6.07002 20.2901 6.70002L20.0001 7.00002L19.7101 7.29002C19.0801 7.92002 19.5201 9.00002 20.4101 9.00002H21.0001C21.5501 9.00002 22.0001 8.55002 22.0001 8.00002V7.41002Z" />
</svg>

<?xml version="1.0" encoding="UTF-8"?>
<svg width="24" height="24" viewBox="0 0 24 24" xmlns="http://www.w3.org/2000/svg">
 <path d="m19.27 3.65-5.1 5.1h-10.97c-0.66 0-1.2-0.54-1.2-1.2v-0.01c0-2.29 1.85-4.14 4.14-4.14h11.71c0.5 0 0.98 0.09 1.42 0.25z"/>
 <path d="m12.67 10.25-5.5 5.5h-1.17c-0.41 0-0.75 0.34-0.75 0.75 0 0.31 0.2 0.59 0.48 0.69l-2.35 2.35c-0.85-0.75-1.38-1.85-1.38-3.08v-5.01c0-0.66 0.54-1.2 1.2-1.2h9.47z"/>
 <path d="m22 11v5.46c0 2.29-1.85 4.14-4.14 4.14h-9.05c-0.89 0-1.34-1.08-0.71-1.71l1.35-1.35c0.19-0.19 0.44-0.29 0.70998-0.29h4.34c0.41 0 0.75-0.34 0.75-0.75s-0.34-0.75-0.75-0.75h-0.84c-0.89 0-1.34-1.08-0.71-1.71l3.46-3.46c0.38-0.37 0.89-0.58 1.42-0.58h3.17c0.55 0 1 0.45 1 1z"/>
 <path d="m21.77 2.23c-0.3-0.3-0.79-0.3-1.09 0l-18.45 18.46c-0.3 0.3-0.3 0.79 0 1.09 0.15 0.14 0.34 0.22 0.54 0.22s0.39-0.08 0.54-0.23l18.46-18.46c0.31-0.3 0.31-0.78 0-1.08z"/>
 <path d="m21.77 3.31-18.46 18.46c-0.15 0.15-0.34 0.23-0.54 0.23s-0.39-0.08-0.54-0.23c-0.31-0.3-0.31-0.78 0-1.08l18.46-18.46c0.3-0.31 0.78-0.31 1.08 0 0.31 0.3 0.31 0.78 0 1.08z"/>
 <path d="m22 7.41c0-0.89-1.08-1.34-1.71-0.71l-0.29 0.3-0.29 0.29c-0.63 0.63-0.19 1.71 0.7 1.71h0.59c0.55 0 1-0.45 1-1v-0.59z"/>
</svg>
